src/images/app-icons/dark-theme/WatsonDb2DataManagementConsole.svg

<svg xmlns="http://www.w3.org/2000/svg" viewBox="0 0 32 32"><defs><linearGradient id="WatsonDb2DataManagementConsole_svg__a" x1="24" y1="10" x2="24" y2="14.615" gradientUnits="userSpaceOnUse"><stop offset="0"/><stop offset="1" stop-opacity="0"/></linearGradient><linearGradient id="WatsonDb2DataManagementConsole_svg__c" x1="-1160" y1="1130" x2="-1128" y2="1098" gradientTransform="translate(1160 -1098)" gradientUnits="userSpaceOnUse"><stop offset=".1" stop-color="#be95ff"/><stop offset=".9" stop-color="#4589ff"/></linearGradient><mask id="WatsonDb2DataManagementConsole_svg__b" x="0" y="0" width="32" height="32" maskUnits="userSpaceOnUse"><path d="M25 14v-4h-2v4a1.007 1.007 0 01-1.011 1H10.043a3.01 3.01 0 00-3.013 3v2h2v-2a1.007 1.007 0 011.013-1h11.946A3.009 3.009 0 0025 14z" fill="#fff"/><path fill="url(#WatsonDb2DataManagementConsole_svg__a)" d="M22 10h4v4.615h-4z"/><path d="M21 25h-4.965v2H21v3h8v-8h-8zm2-1h4v4h-4zM27 2H5a2 2 0 00-2 2v4a2 2 0 002 2h22a2 2 0 002-2V4a2 2 0 00-2-2zm0 6H5V4h22z" fill="#fff"/></mask></defs><g data-name="Layer 2"><g data-name="Dark theme icons"><g mask="url(#WatsonDb2DataManagementConsole_svg__b)"><path fill="url(#WatsonDb2DataManagementConsole_svg__c)" d="M0 0h32v32H0z"/></g><path fill="#f4f4f4" d="M3.02 21.99h10.97v2H3.02zM3.02 25.99h7.97v2H3.02z"/><circle cx="7.99" cy="6.04" r="1" fill="#f4f4f4"/></g></g></svg>

<svg xmlns="http://www.w3.org/2000/svg" xmlns:xlink="http://www.w3.org/1999/xlink" viewBox="0 0 32 32"><defs><style>.cls-1{fill:#fff;}.cls-2{fill:url(#linear-gradient);}.cls-3{mask:url(#mask);}.cls-4{fill:url(#linear-gradient-2);}.cls-5{fill:#f4f4f4;}</style><linearGradient id="linear-gradient" x1="24" y1="10" x2="24" y2="14.615" gradientUnits="userSpaceOnUse"><stop offset="0"/><stop offset="1" stop-opacity="0"/></linearGradient><mask id="mask" x="0" y="0" width="32" height="32" maskUnits="userSpaceOnUse"><path class="cls-1" d="M25,14V10H23v4a1.007,1.007,0,0,1-1.011,1H10.043A3.01,3.01,0,0,0,7.03,18v2h2V18a1.007,1.007,0,0,1,1.013-1H21.989A3.009,3.009,0,0,0,25,14Z"/><rect class="cls-2" x="22" y="10" width="4" height="4.615"/><path class="cls-1" d="M21,25H16.035v2H21v3h8V22H21Zm2-1h4v4H23Z"/><path class="cls-1" d="M27,2H5A2,2,0,0,0,3,4V8a2,2,0,0,0,2,2H27a2,2,0,0,0,2-2V4A2,2,0,0,0,27,2Zm0,6H5V4H27Z"/></mask><linearGradient id="linear-gradient-2" x1="-1160" y1="1130" x2="-1128" y2="1098" gradientTransform="translate(1160 -1098)" gradientUnits="userSpaceOnUse"><stop offset="0.1" stop-color="#be95ff"/><stop offset="0.9" stop-color="#4589ff"/></linearGradient></defs><g id="Layer_2" data-name="Layer 2"><g id="Dark_theme_icons" data-name="Dark theme icons"><g class="cls-3"><rect class="cls-4" width="32" height="32"/></g><rect class="cls-5" x="3.02" y="21.99" width="10.97" height="2"/><rect class="cls-5" x="3.02" y="25.99" width="7.97" height="2"/><circle class="cls-5" cx="7.99" cy="6.04" r="1"/></g></g></svg>
